public/images/tech-logos/javascript-logo.svg

<svg fill="none" viewBox="0 0 35 35" xmlns="http://www.w3.org/2000/svg">
<path d="m0 0h35v35h-35v-35zm32.133 26.652c-0.2552-1.5969-1.295-2.9385-4.3794-4.1898-1.0733-0.5031-2.2662-0.8531-2.6206-1.6625-0.1327-0.4812-0.1531-0.7437-0.0671-1.0281 0.2188-0.9421 1.3344-1.225 2.2094-0.9625 0.5688 0.175 1.0938 0.6125 1.4233 1.3125 1.508-0.9858 1.508-0.9858 2.5594-1.6406-0.3937-0.6125-0.5891-0.8765-0.8546-1.1375-0.9187-1.0282-2.1423-1.5532-4.1329-1.508l-1.0281 0.1298c-0.9858 0.2407-1.925 0.7657-2.4938 1.4657-1.6625 1.8827-1.1827 5.1639 0.8298 6.5202 1.9907 1.4875 4.9015 1.8141 5.2734 3.2156 0.35 1.7062-1.2688 2.2531-2.8671 2.0562-1.1827-0.2625-1.8375-0.8545-2.5594-1.9483l-2.6687 1.5327c0.3062 0.7 0.6562 1.0048 1.1812 1.6173 2.5375 2.5608 8.8813 2.4296 10.02-1.4642 0.0423-0.1312 0.35-1.0281 0.1079-2.4062l0.0671 0.0977zm-13.1-10.566h-3.2783c0 2.8262-0.0132 5.635-0.0132 8.4656 0 1.7967 0.0919 3.446-0.2012 3.9535-0.4812 1.0048-1.7208 0.8765-2.2837 0.7-0.5775-0.2858-0.8707-0.6795-1.2105-1.2468-0.0918-0.1532-0.1604-0.2859-0.1852-0.2859l-2.6614 1.6407c0.44479 0.9187 1.0937 1.7091 1.9308 2.2123 1.2469 0.7437 2.9225 0.9843 4.6769 0.5906 1.1419-0.3296 2.1262-1.0077 2.641-2.0577 0.7438-1.3563 0.5863-3.0188 0.579-4.8796 0.0175-2.9954 0-5.9923 0-9.0111l0.0058-0.0816z" fill="#252525"/>
</svg>

<svg width="35" height="35" viewBox="0 0 35 35" fill="none" xmlns="http://www.w3.org/2000/svg">
<path d="M0 0H35V35H0V0ZM32.1329 26.6525C31.8777 25.0556 30.8379 23.714 27.7535 22.4627C26.6802 21.9596 25.4873 21.6096 25.1329 20.8002C25.0002 20.319 24.9798 20.0565 25.0658 19.7721C25.2846 18.83 26.4002 18.5471 27.2752 18.8096C27.844 18.9846 28.369 19.4221 28.6985 20.1221C30.2065 19.1363 30.2065 19.1363 31.2579 18.4815C30.8642 17.869 30.6688 17.605 30.4033 17.344C29.4846 16.3158 28.261 15.7908 26.2704 15.836L25.2423 15.9658C24.2565 16.2065 23.3173 16.7315 22.7485 17.4315C21.086 19.3142 21.5658 22.5954 23.5783 23.9517C25.569 25.4392 28.4798 25.7658 28.8517 27.1673C29.2017 28.8735 27.5829 29.4204 25.9846 29.2235C24.8019 28.961 24.1471 28.369 23.4252 27.2752L20.7565 28.8079C21.0627 29.5079 21.4127 29.8127 21.9377 30.4252C24.4752 32.986 30.819 32.8548 31.9579 28.961C32.0002 28.8298 32.3079 27.9329 32.0658 26.5548L32.1329 26.6525ZM19.0327 16.0869H15.7544C15.7544 18.9131 15.7412 21.7219 15.7412 24.5525C15.7412 26.3492 15.8331 27.9985 15.54 28.506C15.0588 29.5108 13.8192 29.3825 13.2563 29.206C12.6788 28.9202 12.3856 28.5265 12.0458 27.9592C11.954 27.806 11.8854 27.6733 11.8606 27.6733L9.19917 29.314C9.64396 30.2327 10.2929 31.0231 11.13 31.5263C12.3769 32.27 14.0525 32.5106 15.8069 32.1169C16.9488 31.7873 17.9331 31.1092 18.4479 30.0592C19.1917 28.7029 19.0342 27.0404 19.0269 25.1796C19.0444 22.1842 19.0269 19.1873 19.0269 16.1685L19.0327 16.0869Z" fill="#252525"/>
</svg>
